X:16006
T:Portsmouth
R:Hornpipe
C:Trad. Playford 1709
O:England
M:4/4
L:1/8
Q:1/4=140
K:G
D2|"G"G3A BAGF|"C"E4e4|"G"d2B2 "Em"cBAG|"D"A6D2|
"G"G3A BAGF|"C"E4e4|"G"d2B2 "D"cBAB|"G"G6:|
|:d2|"G"g3a bagf|"G"g2d2B2d2|"G"g2B2 "Em"cBAG|"D"A6 D2|
"G"G3A BAGF|"C"E4e4|"G"d2B2 "D"cBAB|"G"G6:|

